X: 338
T: the Streams of Bunclody   #3
T: na a\`mne \`bun\`clodai\`g
R: air, waltz
%S: s:4 b:32(8+8+8+8)
B: O'Neill's 1850 #338
O: Hartnett
Z: 1999 by John Chambers <jc@trillian.mit.edu>
Q: "Moderate"
M: 3/4
L: 1/8
K: G
"^A"[|] gf | e2 d2 BA | G2 G2 GA |[1,3 Bc d2 dB | e2 d2 :|[2 B3 edB | A4 :|\
"^A4"[|]gf | e2 d2 Bc | d2 dg dB |
    | A2 G2 G2 | "^fine"G4 \
"B"|[| GA | B2 d2 ef | g2 g2 fg | a3 gfd | e2 d2 \
"C"|: gf | e2 d2 BA | G2 G2 GA |
   [1 B3 edB | A4 :|[2 Bc d2 dB | e2 d2 \
"A4"|] e2 d2 Bc | d2 dg dB | A2 G2 G2 | "^->A4"G4 |]
